X:1
T:The Leaving of Liverpool
C:Trad. Irlande, fichier abc : Bernard Loffet
L:1/8
Q:332
M:2/2
K:G
 [G2G,,2][A2G,2] | [B2G,,2]G,2 G,,2[d2G,2] | [c2G,,2][B2G,2] [A2D,,2][G2G,2] | [g2C,,2]C,2 C,,2[e2C,2] | \
 [d2G,,2]G,2 [G2G,,2][A2D,2] | [B2G,,2]G,2 G,,2[d2G,2] | [e2G,,2]G,2 [d2G,,2][B2G,2] | \
 [A2D,,2]D,2 D,,2D,2 | D,,2D,2 [G2G,,2][A2D,2] | [B2G,,2]G,2 G,,2[d2G,2] | [B2G,,2]G,2 [A2G,,2][G2G,2] | \
 [g2C,,2]C,2 [g2C,,2][e2C,2] | [d2G,,2]G,2 [G2G,,2][A2D,2] | [B2G,,2][d2G,2] [d2G,,2][B2G,2] | \
 [A2D,,2]D,2 D,,2[G2G,2] | [G2G,,2]G,2 G,,2G,2 | G,,2G,2 [f2D,,2][g2G,2] | [a2D,,2]D,2 D,,2[f2D,2] | \
 [d2D,,2]D,2 [f2D,,2][a2D,2] | [g2C,,2]C,2 C,,2[e2C,2] | [d2G,,2]G,2 [G2G,,2][A2D,2] | \
 [B2G,,2][d2G,2] [d2G,,2]G,d | [e2G,,2][d2G,2] [c2G,,2][B2G,2] | [A2D,,2]D,2 D,,2D,2 | \
 D,,2[d2D,2] [d2D,,2][c2D,2] | [B2G,,2]G,2 [B2G,,2][d2G,2] | [c2G,,2][B2G,2] [A2D,,2][G2G,2] | \
 [g2C,,2]C,2 C,,2[e2C,2] | [d2G,,2]G,2 [G2G,,2][A2D,2] | [B2G,,2][d2G,2] [d2G,,2][B2G,2] | \
 [A2D,,2]D,2 D,,2[G2G,2] | [G2G,,2]G,2 G,,2G,2 | G,,2G,6 | \
W:Created with TablEdit http://www.tabledit.com/ by Bernard Loffet
